X: 4421
M: 3/4
L: 1/4
K: F
|: !p!\
[1 FAc | fcd | e=B>c | Azz :|\
[2 FAc | fAd |
cG>A | Fz"_Fine."z H:: !f!\
agf | fed | ce>f | g3 |\
ce>f | g3 | cf>g | a3 |\
agf | fed | ce>f | g3 |\
gde | fA=B | c3- | czz :|
K: Bb
|: !p!\
(F2G) | (G2A) | ABc | d3 |\
(d2G) | (e2d) | d3 | c3 |\
(G2A) | (A2=B) | =Bcd | e3 |\
[1 (e2F) | (e2f) | e3 | d3 :|\
[2 g3 | feA | B3- | Bzz H|]
|: !f!\
ff>f | =e3 | _ee>e | d3 |\
c/=B/c/e/a/g/ | gz/f/f | fz/e/e | ez/d/d |\
ff>f | =e3 | _ee>e | d3 |\
c/=B/c/e/a/g/ | gz/f/f | a/a/aa | bz"_D.C."z :|


